!!!OTL: 2103. St. Lorenz (Laurentius).
!!!ARE: Europa, Mitteleuropa, Deutschland
!!!SCT: E2103
!!!TXL: @@DE
!!!YEM: Copyright 1995, estate of Helmut Schaffrath.
**kern	**text
*ICvox	*
*M4/4	*
*met(c)	*
*k[b-]	*
*F:	*
!LO:TX:a:t=Beuttner 1660 (1602). Corner 1625.	!
{4f	Hei-
=1	=1
4f	-li-
4g	-ger
4a	Herr
4b-	Sanct
=2	=2
2cc	Lo-
4cc}	-renʒ,
{4cc	wir
=3	=3
4dd	bitt'n
4cc	dich
4a	all-
4b-/	-ʒu-
=4	=4
(4.cc	-gleich:
8b-	.
4a)}	.
{4cc	daß
=5	=5
4b-/	du
4a	für
4g	uns
4b-/	wöllſt
=6	=6
(4.a	bit-
8g)	.
4f}	-ten
{4a	Gott
=7	=7
4g	Va-
4f	-ter_im
4g	Him-
4g	-mel-
=8	=8
2f	-reich.
4r}	.
==	==
!!!AGN: geistlich, Heiligen - Lied, Legende
!!!ONB: ESAC (Essen Associative Code) Database: ERK3
!!!AMT: simple quadruple
!!!AIN: vox
!!!EED: Helmut Schaffrath
!!!EEV: 1.0
!!!GTL: 4. Katholische Lieder: c) Heiligenlieder (Rufe und Legenden.)
!!!URL-scan: https://rosdok.uni-rostock.de/mcrviewer/recordIdentifier/rosdok_ppn745177999/iview2/phys_0799.iview2?x=188.96815741117916&y=858.7665604818612&scale=0.7014306698522887&rotation=0&layout=singlePageLayout
!!!ENC: Anna Maria Matuszewska
!!!EEV: 2025/14/01
*-	*-
